_inc/systems/logos/idtech.svg

<?xml version="1.0" encoding="utf-8"?>
<svg viewBox="0 0 400 388.5" xmlns="http://www.w3.org/2000/svg">
  <path d="M 232.64 337.437 C 252.163 337.437 280.323 318.078 280.323 309.599 L 280.323 187.999 C 265.597 173.439 251.039 164.64 232.64 164.64 C 191.522 164.64 179.842 225.121 179.842 252.32 C 179.842 294.878 191.202 337.437 232.64 337.437 Z M 211.202 110.878 C 243.201 110.878 263.683 119.997 280.323 130.558 L 280.323 90.399 C 280.323 69.121 250.725 65.439 240.48 65.439 L 240.48 25.599 C 262.24 25.599 323.525 21.28 334.084 1.6 C 344.638 1.121 355.36 0.479 366.081 0 L 366.081 321.121 C 366.081 343.36 392.644 343.36 400 343.36 L 400 388.48 L 289.439 388.48 L 289.439 364.801 C 262.722 379.361 240.48 388.48 206.561 388.48 C 188.866 388.48 171.834 383.902 156.482 375.762 L 156.482 388.48 L 0 388.48 L 0 343.36 C 22.242 343.36 36.962 332.801 36.962 315.68 L 36.962 199.038 C 36.962 183.039 18.24 175.199 0 175.199 L 0 134.557 L 84.32 123.998 L 124.962 123.998 L 124.962 156.312 C 148.586 127.837 180.59 110.878 211.202 110.878 Z M 76.32 7.519 C 102.241 7.519 123.362 28.637 123.362 54.558 C 123.362 80.317 102.244 101.437 76.32 101.437 C 50.561 101.437 29.441 80.317 29.441 54.558 C 29.441 28.637 50.561 7.519 76.32 7.519 Z M 88.641 259.674 C 88.641 310.397 116.961 354.718 156.482 375.677 L 156.482 343.358 C 142.563 343.358 124.962 343.358 124.962 324.639 L 124.962 156.477 C 103.202 182.717 88.641 218.399 88.641 259.674 Z" style="fill: rgb(255, 255, 255);"/>
</svg>

<svg xmlns="http://www.w3.org/2000/svg" viewBox="0 0 400 388.5"><path d="M232.64 337.44c19.52 0 47.68-19.36 47.68-27.84V188c-14.72-14.56-29.28-23.36-47.68-23.36-41.12 0-52.8 60.48-52.8 87.68 0 42.56 11.36 85.12 52.8 85.12M211.2 110.88c32 0 52.48 9.12 69.12 19.68V90.4c0-21.28-29.6-24.96-39.84-24.96V25.6c21.76 0 83.04-4.32 93.6-24 10.56-.48 21.28-1.12 32-1.6v321.12c0 22.24 26.56 22.24 33.92 22.24v45.12H289.44V364.8c-26.72 14.56-48.96 23.68-82.88 23.68-17.7 0-34.73-4.58-50.08-12.72v12.72H0v-45.12c22.24 0 36.96-10.56 36.96-27.68V199.04c0-16-18.72-23.84-36.96-23.84v-40.64L84.32 124h40.64v32.31c23.63-28.47 55.63-45.43 86.24-45.43M76.32 7.52a47.1 47.1 0 0 1 47.04 47.04c0 25.76-21.12 46.88-47.04 46.88-25.76 0-46.88-21.12-46.88-46.88 0-25.92 21.12-47.04 46.88-47.04m12.32 252.15c0 50.73 28.32 95.05 67.84 116v-32.31c-13.92 0-31.52 0-31.52-18.72V156.48c-21.76 26.24-36.32 61.92-36.32 103.2" style="fill:#fff"/></svg>
